automatic/svg/Microsoft - XBOX 360 S.svg

<?xml version="1.0" encoding="UTF-8" standalone="no"?>
<svg
   xmlns:dc="http://purl.org/dc/elements/1.1/"
   xmlns:cc="http://creativecommons.org/ns#"
   xmlns:rdf="http://www.w3.org/1999/02/22-rdf-syntax-ns#"
   xmlns:svg="http://www.w3.org/2000/svg"
   xmlns="http://www.w3.org/2000/svg"
   viewBox="0 0 320.00399 305.8518"
   height="305.85181"
   width="320.004"
   xml:space="preserve"
   id="svg2"
   version="1.1"><metadata
     id="metadata8"><rdf:RDF><cc:Work
         rdf:about=""><dc:format>image/svg+xml</dc:format><dc:type
           rdf:resource="http://purl.org/dc/dcmitype/StillImage" /></cc:Work></rdf:RDF></metadata><defs
     id="defs6"><clipPath
       id="clipPath18"
       clipPathUnits="userSpaceOnUse"><path
         id="path16"
         d="M 0,256 H 256 V 0 H 0 Z" /></clipPath></defs><g
     transform="matrix(1.3333333,0,0,-1.3333333,-10.662666,322.15146)"
     id="g10"><g
       id="g12"><g
         clip-path="url(#clipPath18)"
         id="g14"><g
           transform="translate(244,22.1406)"
           id="g20"><path
             id="path22"
             style="fill:#f2f2f2;fill-opacity:1;fill-rule:nonzero;stroke:none"
             d="M 0,0 C 0,-0.973 -0.356,-1.896 -0.978,-2.613 -1.091,-2.744 -1.212,-2.869 -1.343,-2.985 L -1.354,-2.997 C -1.489,-3.115 -1.63,-3.228 -1.781,-3.328 L -6,-6.141 v 4.245 4.042 213.326 0.387 l 4.219,-2.812 C -0.668,212.305 0,211.056 0,209.719 Z M -87.851,15.841 -10,6.348 V 2.717 -1.324 -5.628 l -74,9.487 z m -134.152,-19.763 -0.213,12.103 130.149,7.23 0.272,-0.816 3.726,-11.178 z m -1.997,113.779 1.99,105.433 61.83,-8.82 0.692,-1.938 65.707,-183.979 0.403,-1.208 -128.908,-7.162 z m 214,-99.48 -77.516,9.453 -1.839,0.225 -66.366,185.823 145.721,9.587 z m -216.176,-4.47 0.176,-10.048 -3.265,1.088 c -1.633,0.545 -2.735,2.074 -2.735,3.795 v 5.041 204.157 1.037 c 0,0.24 0.026,0.475 0.068,0.706 0.01,0.058 0.028,0.113 0.041,0.17 0.04,0.178 0.089,0.352 0.153,0.521 0.018,0.048 0.039,0.095 0.059,0.143 0.076,0.181 0.164,0.355 0.266,0.522 0.016,0.027 0.032,0.054 0.049,0.081 0.482,0.756 1.207,1.354 2.099,1.651 l 3.265,1.088 -2,-106 z m 226.613,210.468 -4.218,2.812 -6.219,0.286 -145.78,-9.591 -63.43,9.049 c -1.812,0.259 -3.644,0.351 -5.473,0.276 l -3.039,-0.126 c -0.955,-0.039 -1.901,-0.213 -2.808,-0.515 -3.021,0 -5.47,-2.449 -5.47,-5.47 V 109.939 l -0.003,-0.077 0.003,-0.079 V 0.742 c 0,-3.443 2.204,-6.5 5.47,-7.589 l 3.265,-1.089 5.332,0.012 137.352,7.527 L -10,-9.66 -7.001,-9.892 c 2.065,-0.16 4.112,0.489 5.71,1.808 l 1.728,1.428 C 2.668,-5.169 4,-2.681 4,0 v 209.719 c 0,2.675 -1.337,5.173 -3.563,6.656" /></g><g
           transform="translate(194.3213,111.2461)"
           id="g24"><path
             id="path26"
             style="fill:#f2f2f2;fill-opacity:1;fill-rule:nonzero;stroke:none"
             d="m 0,0 -4.263,0.819 7.125,-22.262 4.225,-0.704 z" /></g><g
           transform="translate(185.7969,112.8848)"
           id="g28"><path
             id="path30"
             style="fill:#f2f2f2;fill-opacity:1;fill-rule:nonzero;stroke:none"
             d="m 0,0 -4.263,0.82 7.199,-22.494 4.225,-0.704 z" /></g><g
           transform="translate(202.8457,109.6064)"
           id="g32"><path
             id="path34"
             style="fill:#f2f2f2;fill-opacity:1;fill-rule:nonzero;stroke:none"
             d="m 0,0 -4.262,0.819 7.05,-22.031 4.226,-0.704 z" /></g><g
           transform="translate(154.5967,122.8848)"
           id="g36"><path
             id="path38"
             style="fill:#f2f2f2;fill-opacity:1;fill-rule:nonzero;stroke:none"
             d="M 0,0 4.263,-0.819 -4.899,27.812 -9.143,28.57 Z" /></g><g
           transform="translate(180.1709,117.9668)"
           id="g40"><path
             id="path42"
             style="fill:#f2f2f2;fill-opacity:1;fill-rule:nonzero;stroke:none"
             d="M 0,0 4.262,-0.819 -5.02,28.185 -9.262,28.942 Z" /></g><g
           transform="translate(188.6953,116.3281)"
           id="g44"><path
             id="path46"
             style="fill:#f2f2f2;fill-opacity:1;fill-rule:nonzero;stroke:none"
             d="m 0,0 4.262,-0.82 -9.321,29.128 -4.243,0.758 z" /></g><g
           transform="translate(163.1211,121.2461)"
           id="g48"><path
             id="path50"
             style="fill:#f2f2f2;fill-opacity:1;fill-rule:nonzero;stroke:none"
             d="m 0,0 4.263,-0.82 -9.202,28.756 -4.243,0.757 z" /></g><g
           transform="translate(171.6455,119.6064)"
           id="g52"><path
             id="path54"
             style="fill:#f2f2f2;fill-opacity:1;fill-rule:nonzero;stroke:none"
             d="M 0,0 4.263,-0.819 -4.979,28.06 -9.222,28.818 Z" /></g><g
           transform="translate(168.748,116.1641)"
           id="g56"><path
             id="path58"
             style="fill:#f2f2f2;fill-opacity:1;fill-rule:nonzero;stroke:none"
             d="M 0,0 -4.263,0.819 3.083,-22.136 7.309,-22.84 Z" /></g><g
           transform="translate(177.2725,114.5244)"
           id="g60"><path
             id="path62"
             style="fill:#f2f2f2;fill-opacity:1;fill-rule:nonzero;stroke:none"
             d="m 0,0 -4.263,0.82 7.272,-22.724 4.225,-0.705 z" /></g><g
           transform="translate(214.2686,111.4102)"
           id="g64"><path
             id="path66"
             style="fill:#f2f2f2;fill-opacity:1;fill-rule:nonzero;stroke:none"
             d="M 0,0 4.263,-0.82 -5.178,28.681 -9.42,29.438 Z" /></g><g
           transform="translate(217.5762,138.5757)"
           id="g68"><path
             id="path70"
             style="fill:#f2f2f2;fill-opacity:1;fill-rule:nonzero;stroke:none"
             d="m 0,0 -4.243,0.758 9.46,-29.563 4.262,-0.82 z" /></g><g
           transform="translate(154.9297,96.8447)"
           id="g72"><path
             id="path74"
             style="fill:#f2f2f2;fill-opacity:1;fill-rule:nonzero;stroke:none"
             d="m 0,0 4.226,-0.704 -7.457,23.302 -4.263,0.82 z" /></g><g
           transform="translate(232,131)"
           id="g76"><path
             id="path78"
             style="fill:#f2f2f2;fill-opacity:1;fill-rule:nonzero;stroke:none"
             d="M 0,0 V 5 L -1.697,5.303 Z" /></g><g
           transform="translate(228.4199,104.6885)"
           id="g80"><path
             id="path82"
             style="fill:#f2f2f2;fill-opacity:1;fill-rule:nonzero;stroke:none"
             d="M 0,0 -4.263,0.819 2.566,-20.52 3.58,-20.688 v 9.5 z" /></g><g
           transform="translate(160.2227,117.8037)"
           id="g84"><path
             id="path86"
             style="fill:#f2f2f2;fill-opacity:1;fill-rule:nonzero;stroke:none"
             d="m 0,0 -4.262,0.819 7.419,-23.186 4.226,-0.704 z" /></g><g
           transform="translate(197.2197,114.6885)"
           id="g88"><path
             id="path90"
             style="fill:#f2f2f2;fill-opacity:1;fill-rule:nonzero;stroke:none"
             d="M 0,0 4.263,-0.819 -5.099,28.433 -9.341,29.19 Z" /></g><g
           transform="translate(205.7441,113.0488)"
           id="g92"><path
             id="path94"
             style="fill:#f2f2f2;fill-opacity:1;fill-rule:nonzero;stroke:none"
             d="m 0,0 4.263,-0.819 -9.401,29.376 -4.243,0.758 z" /></g><g
           transform="translate(194.3096,86.2813)"
           id="g96"><path
             id="path98"
             style="fill:#f2f2f2;fill-opacity:1;fill-rule:nonzero;stroke:none"
             d="M 0,0 -4.225,0.705 4.157,-25.491 8.349,-26.09 Z" /></g><g
           transform="translate(219.6621,82.0566)"
           id="g100"><path
             id="path102"
             style="fill:#f2f2f2;fill-opacity:1;fill-rule:nonzero;stroke:none"
             d="m 0,0 -4.226,0.704 8.181,-25.563 4.191,-0.599 z" /></g><g
           transform="translate(211.2109,83.4648)"
           id="g104"><path
             id="path106"
             style="fill:#f2f2f2;fill-opacity:1;fill-rule:nonzero;stroke:none"
             d="m 0,0 -4.225,0.704 8.247,-25.773 4.192,-0.599 z" /></g><g
           transform="translate(207.1084,108.7871)"
           id="g108"><path
             id="path110"
             style="fill:#f2f2f2;fill-opacity:1;fill-rule:nonzero;stroke:none"
             d="M 0,0 6.977,-21.801 11.201,-22.506 4.262,-0.82 Z" /></g><g
           transform="translate(202.7607,84.873)"
           id="g112"><path
             id="path114"
             style="fill:#f2f2f2;fill-opacity:1;fill-rule:nonzero;stroke:none"
             d="M 0,0 -4.226,0.704 4.09,-25.28 8.281,-25.879 Z" /></g><g
           transform="translate(228.1123,80.6475)"
           id="g116"><path
             id="path118"
             style="fill:#f2f2f2;fill-opacity:1;fill-rule:nonzero;stroke:none"
             d="m 0,0 -4.225,0.705 8.113,-25.352 v 12.5 z" /></g><g
           transform="translate(185.8594,87.6904)"
           id="g120"><path
             id="path122"
             style="fill:#f2f2f2;fill-opacity:1;fill-rule:nonzero;stroke:none"
             d="m 0,0 -4.226,0.704 8.451,-26.406 4.191,-0.599 z" /></g><g
           transform="translate(133.2852,126.9834)"
           id="g124"><path
             id="path126"
             style="fill:#f2f2f2;fill-opacity:1;fill-rule:nonzero;stroke:none"
             d="M 0,0 -9.043,28.259 -13.285,29.017 -4.262,0.82 Z" /></g><g
           transform="translate(146.0723,124.5244)"
           id="g128"><path
             id="path130"
             style="fill:#f2f2f2;fill-opacity:1;fill-rule:nonzero;stroke:none"
             d="M 0,0 4.262,-0.819 -4.86,27.687 -9.103,28.445 Z" /></g><g
           transform="translate(219.8955,106.3281)"
           id="g132"><path
             id="path134"
             style="fill:#f2f2f2;fill-opacity:1;fill-rule:nonzero;stroke:none"
             d="m 0,0 -4.263,0.819 6.903,-21.57 4.225,-0.704 z" /></g><g
           transform="translate(226.0605,137.0605)"
           id="g136"><path
             id="path138"
             style="fill:#f2f2f2;fill-opacity:1;fill-rule:nonzero;stroke:none"
             d="m 0,0 -4.242,0.758 9.5,-29.688 0.681,-0.131 v 10.5 z" /></g><g
           transform="translate(138.0283,99.6621)"
           id="g140"><path
             id="path142"
             style="fill:#f2f2f2;fill-opacity:1;fill-rule:nonzero;stroke:none"
             d="M 0,0 4.226,-0.704 -3.379,23.06 -7.642,23.879 Z" /></g><g
           transform="translate(150.7041,97.5488)"
           id="g144"><path
             id="path146"
             style="fill:#f2f2f2;fill-opacity:1;fill-rule:nonzero;stroke:none"
             d="m 0,0 -7.53,23.533 -4.263,0.82 7.567,-23.648 z" /></g><g
           transform="translate(152.3594,67.377)"
           id="g148"><path
             id="path150"
             style="fill:#f2f2f2;fill-opacity:1;fill-rule:nonzero;stroke:none"
             d="M 0,0 -8.754,27.355 -12.979,28.06 -4.191,0.6 Z" /></g><g
           transform="translate(137.5479,126.1641)"
           id="g152"><path
             id="path154"
             style="fill:#f2f2f2;fill-opacity:1;fill-rule:nonzero;stroke:none"
             d="M 0,0 4.262,-0.82 -4.82,27.563 -9.063,28.321 Z" /></g><g
           transform="translate(152.0566,93.3242)"
           id="g156"><path
             id="path158"
             style="fill:#f2f2f2;fill-opacity:1;fill-rule:nonzero;stroke:none"
             d="m 0,0 -4.226,0.704 8.72,-27.25 4.192,-0.599 z" /></g><g
           transform="translate(168.958,90.5068)"
           id="g160"><path
             id="path162"
             style="fill:#f2f2f2;fill-opacity:1;fill-rule:nonzero;stroke:none"
             d="m 0,0 -4.226,0.704 8.585,-26.828 4.192,-0.599 z" /></g><g
           transform="translate(177.4082,89.0986)"
           id="g164"><path
             id="path166"
             style="fill:#f2f2f2;fill-opacity:1;fill-rule:nonzero;stroke:none"
             d="m 0,0 -4.225,0.704 8.517,-26.617 4.192,-0.599 z" /></g><g
           transform="translate(160.5068,91.915)"
           id="g168"><path
             id="path170"
             style="fill:#f2f2f2;fill-opacity:1;fill-rule:nonzero;stroke:none"
             d="m 0,0 -4.226,0.705 8.654,-27.039 4.191,-0.599 z" /></g></g></g></g></svg>

<?xml version="1.0" encoding="UTF-8" standalone="no"?>
<svg
   xmlns:dc="http://purl.org/dc/elements/1.1/"
   xmlns:cc="http://creativecommons.org/ns#"
   xmlns:rdf="http://www.w3.org/1999/02/22-rdf-syntax-ns#"
   xmlns:svg="http://www.w3.org/2000/svg"
   xmlns="http://www.w3.org/2000/svg"
   viewBox="0 0 320 320"
   height="320"
   width="320"
   xml:space="preserve"
   version="1.1"
   id="svg2"><metadata
     id="metadata8"><rdf:RDF><cc:Work
         rdf:about=""><dc:format>image/svg+xml</dc:format><dc:type
           rdf:resource="http://purl.org/dc/dcmitype/StillImage" /></cc:Work></rdf:RDF></metadata><defs
     id="defs6"><clipPath
       id="clipPath16"
       clipPathUnits="userSpaceOnUse"><path
         id="path18"
         d="M 0,256 256,256 256,0 0,0 0,256 Z" /></clipPath></defs><g
     transform="matrix(1.25,0,0,-1.25,0,320)"
     id="g10"><g
       id="g12"><g
         clip-path="url(#clipPath16)"
         id="g14"><g
           transform="translate(244,22.1406)"
           id="g20"><path
             id="path22"
             style="fill:#f2f2f2;fill-opacity:1;fill-rule:nonzero;stroke:none"
             d="M 0,0 C 0,-0.973 -0.356,-1.896 -0.978,-2.613 -1.091,-2.744 -1.212,-2.869 -1.343,-2.985 L -1.354,-2.997 C -1.489,-3.115 -1.63,-3.228 -1.781,-3.328 L -6,-6.141 l 0,4.245 0,4.042 0,213.326 0,0.387 4.219,-2.812 C -0.668,212.305 0,211.056 0,209.719 L 0,0 Z M -87.851,15.841 -10,6.348 l 0,-3.631 0,-4.041 0,-4.304 -74,9.487 -3.851,11.982 z m -134.152,-19.763 -0.213,12.103 130.149,7.23 0.272,-0.816 3.726,-11.178 -133.934,-7.339 z m -1.997,113.779 1.99,105.433 61.83,-8.82 0.692,-1.938 65.707,-183.979 0.403,-1.208 -128.908,-7.162 -1.714,97.674 z m 214,-99.48 -77.516,9.453 -1.839,0.225 -66.366,185.823 145.721,9.587 0,-205.088 z m -216.176,-4.47 0.176,-10.048 -3.265,1.088 c -1.633,0.545 -2.735,2.074 -2.735,3.795 l 0,5.041 0,204.157 0,1.037 c 0,0.24 0.026,0.475 0.068,0.706 0.01,0.058 0.028,0.113 0.041,0.17 0.04,0.178 0.089,0.352 0.153,0.521 0.018,0.048 0.039,0.095 0.059,0.143 0.076,0.181 0.164,0.355 0.266,0.522 0.016,0.027 0.032,0.054 0.049,0.081 0.482,0.756 1.207,1.354 2.099,1.651 l 3.265,1.088 -2,-106 1.824,-103.952 z m 226.613,210.468 -4.218,2.812 -6.219,0.286 -145.78,-9.591 -63.43,9.049 c -1.812,0.259 -3.644,0.351 -5.473,0.276 l -3.039,-0.126 c -0.955,-0.039 -1.901,-0.213 -2.808,-0.515 -3.021,0 -5.47,-2.449 -5.47,-5.47 l 0,-103.157 -0.003,-0.077 0.003,-0.079 0,-109.041 c 0,-3.443 2.204,-6.5 5.47,-7.589 l 3.265,-1.089 5.332,0.012 137.352,7.527 L -10,-9.66 -7.001,-9.892 c 2.065,-0.16 4.112,0.489 5.71,1.808 l 1.728,1.428 C 2.668,-5.169 4,-2.681 4,0 l 0,209.719 c 0,2.675 -1.337,5.173 -3.563,6.656" /></g><g
           transform="translate(194.3213,111.2461)"
           id="g24"><path
             id="path26"
             style="fill:#f2f2f2;fill-opacity:1;fill-rule:nonzero;stroke:none"
             d="M 0,0 -4.263,0.819 2.862,-21.443 7.087,-22.147 0,0 Z" /></g><g
           transform="translate(185.7969,112.8848)"
           id="g28"><path
             id="path30"
             style="fill:#f2f2f2;fill-opacity:1;fill-rule:nonzero;stroke:none"
             d="M 0,0 -4.263,0.82 2.936,-21.674 7.161,-22.378 0,0 Z" /></g><g
           transform="translate(202.8457,109.6064)"
           id="g32"><path
             id="path34"
             style="fill:#f2f2f2;fill-opacity:1;fill-rule:nonzero;stroke:none"
             d="M 0,0 -4.262,0.819 2.788,-21.212 7.014,-21.916 0,0 Z" /></g><g
           transform="translate(154.5967,122.8848)"
           id="g36"><path
             id="path38"
             style="fill:#f2f2f2;fill-opacity:1;fill-rule:nonzero;stroke:none"
             d="M 0,0 4.263,-0.819 -4.899,27.812 -9.143,28.57 0,0 Z" /></g><g
           transform="translate(180.1709,117.9668)"
           id="g40"><path
             id="path42"
             style="fill:#f2f2f2;fill-opacity:1;fill-rule:nonzero;stroke:none"
             d="M 0,0 4.262,-0.819 -5.02,28.185 -9.262,28.942 0,0 Z" /></g><g
           transform="translate(188.6953,116.3281)"
           id="g44"><path
             id="path46"
             style="fill:#f2f2f2;fill-opacity:1;fill-rule:nonzero;stroke:none"
             d="M 0,0 4.262,-0.82 -5.059,28.308 -9.302,29.066 0,0 Z" /></g><g
           transform="translate(163.1211,121.2461)"
           id="g48"><path
             id="path50"
             style="fill:#f2f2f2;fill-opacity:1;fill-rule:nonzero;stroke:none"
             d="M 0,0 4.263,-0.82 -4.939,27.936 -9.182,28.693 0,0 Z" /></g><g
           transform="translate(171.6455,119.6064)"
           id="g52"><path
             id="path54"
             style="fill:#f2f2f2;fill-opacity:1;fill-rule:nonzero;stroke:none"
             d="M 0,0 4.263,-0.819 -4.979,28.06 -9.222,28.818 0,0 Z" /></g><g
           transform="translate(168.748,116.1641)"
           id="g56"><path
             id="path58"
             style="fill:#f2f2f2;fill-opacity:1;fill-rule:nonzero;stroke:none"
             d="M 0,0 -4.263,0.819 3.083,-22.136 7.309,-22.84 0,0 Z" /></g><g
           transform="translate(177.2725,114.5244)"
           id="g60"><path
             id="path62"
             style="fill:#f2f2f2;fill-opacity:1;fill-rule:nonzero;stroke:none"
             d="M 0,0 -4.263,0.82 3.009,-21.904 7.234,-22.609 0,0 Z" /></g><g
           transform="translate(214.2686,111.4102)"
           id="g64"><path
             id="path66"
             style="fill:#f2f2f2;fill-opacity:1;fill-rule:nonzero;stroke:none"
             d="M 0,0 4.263,-0.82 -5.178,28.681 -9.42,29.438 0,0 Z" /></g><g
           transform="translate(217.5762,138.5757)"
           id="g68"><path
             id="path70"
             style="fill:#f2f2f2;fill-opacity:1;fill-rule:nonzero;stroke:none"
             d="m 0,0 -4.243,0.758 9.46,-29.563 4.262,-0.82 L 0,0 Z" /></g><g
           transform="translate(154.9297,96.8447)"
           id="g72"><path
             id="path74"
             style="fill:#f2f2f2;fill-opacity:1;fill-rule:nonzero;stroke:none"
             d="M 0,0 4.226,-0.704 -3.231,22.598 -7.494,23.418 0,0 Z" /></g><g
           transform="translate(232,131)"
           id="g76"><path
             id="path78"
             style="fill:#f2f2f2;fill-opacity:1;fill-rule:nonzero;stroke:none"
             d="M 0,0 0,5 -1.697,5.303 0,0 Z" /></g><g
           transform="translate(228.4199,104.6885)"
           id="g80"><path
             id="path82"
             style="fill:#f2f2f2;fill-opacity:1;fill-rule:nonzero;stroke:none"
             d="m 0,0 -4.263,0.819 6.829,-21.339 1.014,-0.168 0,9.5 L 0,0 Z" /></g><g
           transform="translate(160.2227,117.8037)"
           id="g84"><path
             id="path86"
             style="fill:#f2f2f2;fill-opacity:1;fill-rule:nonzero;stroke:none"
             d="M 0,0 -4.262,0.819 3.157,-22.367 7.383,-23.071 0,0 Z" /></g><g
           transform="translate(197.2197,114.6885)"
           id="g88"><path
             id="path90"
             style="fill:#f2f2f2;fill-opacity:1;fill-rule:nonzero;stroke:none"
             d="M 0,0 4.263,-0.819 -5.099,28.433 -9.341,29.19 0,0 Z" /></g><g
           transform="translate(205.7441,113.0488)"
           id="g92"><path
             id="path94"
             style="fill:#f2f2f2;fill-opacity:1;fill-rule:nonzero;stroke:none"
             d="M 0,0 4.263,-0.819 -5.138,28.557 -9.381,29.315 0,0 Z" /></g><g
           transform="translate(194.3096,86.2813)"
           id="g96"><path
             id="path98"
             style="fill:#f2f2f2;fill-opacity:1;fill-rule:nonzero;stroke:none"
             d="M 0,0 -4.225,0.705 4.157,-25.491 8.349,-26.09 0,0 Z" /></g><g
           transform="translate(219.6621,82.0566)"
           id="g100"><path
             id="path102"
             style="fill:#f2f2f2;fill-opacity:1;fill-rule:nonzero;stroke:none"
             d="M 0,0 -4.226,0.704 3.955,-24.859 8.146,-25.458 0,0 Z" /></g><g
           transform="translate(211.2109,83.4648)"
           id="g104"><path
             id="path106"
             style="fill:#f2f2f2;fill-opacity:1;fill-rule:nonzero;stroke:none"
             d="M 0,0 -4.225,0.704 4.022,-25.069 8.214,-25.668 0,0 Z" /></g><g
           transform="translate(207.1084,108.7871)"
           id="g108"><path
             id="path110"
             style="fill:#f2f2f2;fill-opacity:1;fill-rule:nonzero;stroke:none"
             d="M 0,0 6.977,-21.801 11.201,-22.506 4.262,-0.82 0,0 Z" /></g><g
           transform="translate(202.7607,84.873)"
           id="g112"><path
             id="path114"
             style="fill:#f2f2f2;fill-opacity:1;fill-rule:nonzero;stroke:none"
             d="M 0,0 -4.226,0.704 4.09,-25.28 8.281,-25.879 0,0 Z" /></g><g
           transform="translate(228.1123,80.6475)"
           id="g116"><path
             id="path118"
             style="fill:#f2f2f2;fill-opacity:1;fill-rule:nonzero;stroke:none"
             d="m 0,0 -4.225,0.705 8.113,-25.352 0,12.5 L 0,0 Z" /></g><g
           transform="translate(185.8594,87.6904)"
           id="g120"><path
             id="path122"
             style="fill:#f2f2f2;fill-opacity:1;fill-rule:nonzero;stroke:none"
             d="M 0,0 -4.226,0.704 4.225,-25.702 8.416,-26.301 0,0 Z" /></g><g
           transform="translate(133.2852,126.9834)"
           id="g124"><path
             id="path126"
             style="fill:#f2f2f2;fill-opacity:1;fill-rule:nonzero;stroke:none"
             d="M 0,0 -9.043,28.259 -13.285,29.017 -4.262,0.82 0,0 Z" /></g><g
           transform="translate(146.0723,124.5244)"
           id="g128"><path
             id="path130"
             style="fill:#f2f2f2;fill-opacity:1;fill-rule:nonzero;stroke:none"
             d="M 0,0 4.262,-0.819 -4.86,27.687 -9.103,28.445 0,0 Z" /></g><g
           transform="translate(219.8955,106.3281)"
           id="g132"><path
             id="path134"
             style="fill:#f2f2f2;fill-opacity:1;fill-rule:nonzero;stroke:none"
             d="M 0,0 -4.263,0.819 2.64,-20.751 6.865,-21.455 0,0 Z" /></g><g
           transform="translate(226.0605,137.0605)"
           id="g136"><path
             id="path138"
             style="fill:#f2f2f2;fill-opacity:1;fill-rule:nonzero;stroke:none"
             d="m 0,0 -4.242,0.758 9.5,-29.688 0.681,-0.131 0,10.5 L 0,0 Z" /></g><g
           transform="translate(138.0283,99.6621)"
           id="g140"><path
             id="path142"
             style="fill:#f2f2f2;fill-opacity:1;fill-rule:nonzero;stroke:none"
             d="M 0,0 4.226,-0.704 -3.379,23.06 -7.642,23.879 0,0 Z" /></g><g
           transform="translate(150.7041,97.5488)"
           id="g144"><path
             id="path146"
             style="fill:#f2f2f2;fill-opacity:1;fill-rule:nonzero;stroke:none"
             d="m 0,0 -7.53,23.533 -4.263,0.82 L -4.226,0.705 0,0 Z" /></g><g
           transform="translate(152.3594,67.377)"
           id="g148"><path
             id="path150"
             style="fill:#f2f2f2;fill-opacity:1;fill-rule:nonzero;stroke:none"
             d="M 0,0 -8.754,27.355 -12.979,28.06 -4.191,0.6 0,0 Z" /></g><g
           transform="translate(137.5479,126.1641)"
           id="g152"><path
             id="path154"
             style="fill:#f2f2f2;fill-opacity:1;fill-rule:nonzero;stroke:none"
             d="M 0,0 4.262,-0.82 -4.82,27.563 -9.063,28.321 0,0 Z" /></g><g
           transform="translate(152.0566,93.3242)"
           id="g156"><path
             id="path158"
             style="fill:#f2f2f2;fill-opacity:1;fill-rule:nonzero;stroke:none"
             d="m 0,0 -4.226,0.704 8.72,-27.25 4.192,-0.599 L 0,0 Z" /></g><g
           transform="translate(168.958,90.5068)"
           id="g160"><path
             id="path162"
             style="fill:#f2f2f2;fill-opacity:1;fill-rule:nonzero;stroke:none"
             d="M 0,0 -4.226,0.704 4.359,-26.124 8.551,-26.723 0,0 Z" /></g><g
           transform="translate(177.4082,89.0986)"
           id="g164"><path
             id="path166"
             style="fill:#f2f2f2;fill-opacity:1;fill-rule:nonzero;stroke:none"
             d="M 0,0 -4.225,0.704 4.292,-25.913 8.484,-26.512 0,0 Z" /></g><g
           transform="translate(160.5068,91.915)"
           id="g168"><path
             id="path170"
             style="fill:#f2f2f2;fill-opacity:1;fill-rule:nonzero;stroke:none"
             d="M 0,0 -4.226,0.705 4.428,-26.334 8.619,-26.933 0,0 Z" /></g></g></g></g></svg>
